img/icons/shape/square.svg

<svg fill="none" viewBox="0 0 16 16" xmlns="http://www.w3.org/2000/svg"><path d="m9.6 1h-3.2c-1.14 0-1.93 7.8e-4 -2.55 0.0512-0.605 0.0494-0.953 0.142-1.22 0.276-0.564 0.288-1.02 0.747-1.31 1.31-0.134 0.263-0.226 0.611-0.276 1.22-0.0504 0.617-0.0512 1.41-0.0512 2.55v3.2c0 1.14 7.8e-4 1.93 0.0512 2.55 0.0494 0.605 0.142 0.953 0.276 1.22 0.288 0.564 0.747 1.02 1.31 1.31 0.263 0.134 0.611 0.226 1.22 0.276 0.617 0.0504 1.41 0.0511 2.55 0.0511h3.2c1.14 0 1.93-7e-4 2.55-0.0511 0.605-0.0495 0.953-0.142 1.22-0.276 0.564-0.288 1.02-0.747 1.31-1.31 0.134-0.263 0.226-0.611 0.276-1.22 0.0504-0.617 0.0512-1.41 0.0512-2.55v-3.2c0-1.14-8e-4 -1.93-0.0512-2.55-0.0494-0.605-0.142-0.953-0.276-1.22-0.288-0.564-0.746-1.02-1.31-1.31-0.263-0.134-0.611-0.226-1.22-0.276-0.617-0.0504-1.41-0.0512-2.55-0.0512zm-9.16 1.18c-0.436 0.856-0.436 1.98-0.436 4.22v3.2c0 2.24 0 3.36 0.436 4.22 0.383 0.753 0.995 1.36 1.75 1.75 0.856 0.436 1.98 0.436 4.22 0.436h3.2c2.24 0 3.36 0 4.22-0.436 0.753-0.384 1.36-0.995 1.75-1.75 0.436-0.856 0.436-1.98 0.436-4.22v-3.2c0-2.24 0-3.36-0.436-4.22-0.384-0.753-0.995-1.36-1.75-1.75-0.856-0.436-1.98-0.436-4.22-0.436h-3.2c-2.24 0-3.36 0-4.22 0.436-0.753 0.383-1.36 0.995-1.75 1.75z" clip-rule="evenodd" fill="#000" fill-rule="evenodd"/></svg>

<svg xmlns="http://www.w3.org/2000/svg" viewBox="0 0 16 16" fill="none">
  <path fill="#000" fill-rule="evenodd"
    d="M9.6 1H6.4c-1.137 0-1.929.001-2.546.051-.605.05-.953.142-1.216.276a3 3 0 0 0-1.311 1.311c-.134.264-.226.611-.276 1.216C1.001 4.471 1 5.264 1 6.4v3.2c0 1.137 0 1.93.051 2.546.05.605.142.953.276 1.216a3 3 0 0 0 1.311 1.311c.263.134.611.227 1.216.276C4.471 15 5.264 15 6.4 15h3.2c1.137 0 1.929 0 2.546-.05.605-.05.953-.143 1.216-.277a3 3 0 0 0 1.311-1.31c.134-.264.226-.612.276-1.217.05-.617.051-1.41.051-2.546V6.4c0-1.136 0-1.929-.051-2.546-.05-.605-.142-.952-.276-1.216a3 3 0 0 0-1.311-1.31c-.263-.135-.611-.227-1.216-.277-.617-.05-1.41-.05-2.546-.05ZM.436 2.184C0 3.04 0 4.16 0 6.4v3.2c0 2.24 0 3.36.436 4.216a4 4 0 0 0 1.748 1.748C3.04 16 4.16 16 6.4 16h3.2c2.24 0 3.36 0 4.216-.436a4 4 0 0 0 1.748-1.748C16 12.961 16 11.84 16 9.6V6.4c0-2.24 0-3.36-.436-4.216A4 4 0 0 0 13.816.436C12.96 0 11.84 0 9.6 0H6.4C4.16 0 3.04 0 2.184.436A4 4 0 0 0 .436 2.184Z"
    clip-rule="evenodd" />
</svg>
